apps/static/images/Espazum.svg

<svg width="233" height="50" viewBox="0 0 233 50" fill="none" xmlns="http://www.w3.org/2000/svg">
<path d="M10.6 8.6V14.35H21.85V21.8H10.6V28.15H23.35V36H0.800049V0.75H23.35V8.6H10.6Z" fill="url(#paint0_linear)"/>
<path d="M40.1426 36.35C37.6093 36.35 35.3426 35.9333 33.3426 35.1C31.376 34.2333 29.8093 33.0667 28.6426 31.6C27.5093 30.1 26.876 28.4167 26.7426 26.55H36.2426C36.376 27.45 36.7926 28.15 37.4926 28.65C38.1926 29.15 39.0593 29.4 40.0926 29.4C40.8926 29.4 41.526 29.2333 41.9926 28.9C42.4593 28.5667 42.6926 28.1333 42.6926 27.6C42.6926 26.9 42.3093 26.3833 41.5426 26.05C40.776 25.7167 39.5093 25.35 37.7426 24.95C35.7426 24.55 34.076 24.1 32.7426 23.6C31.4093 23.1 30.2426 22.2833 29.2426 21.15C28.276 20.0167 27.7926 18.4833 27.7926 16.55C27.7926 14.8833 28.2426 13.3833 29.1426 12.05C30.0426 10.6833 31.3593 9.6 33.0926 8.8C34.8593 8 36.976 7.6 39.4426 7.6C43.1093 7.6 45.9926 8.5 48.0926 10.3C50.1926 12.1 51.4093 14.4667 51.7426 17.4H42.8926C42.726 16.5 42.326 15.8167 41.6926 15.35C41.0926 14.85 40.276 14.6 39.2426 14.6C38.4426 14.6 37.826 14.75 37.3926 15.05C36.9926 15.35 36.7926 15.7667 36.7926 16.3C36.7926 16.9667 37.176 17.4833 37.9426 17.85C38.7093 18.1833 39.9426 18.5333 41.6426 18.9C43.676 19.3333 45.3593 19.8167 46.6926 20.35C48.0593 20.8833 49.2426 21.75 50.2426 22.95C51.276 24.1167 51.7926 25.7167 51.7926 27.75C51.7926 29.3833 51.3093 30.85 50.3426 32.15C49.4093 33.45 48.0593 34.4833 46.2926 35.25C44.5593 35.9833 42.5093 36.35 40.1426 36.35Z" fill="url(#paint1_linear)"/>
<path d="M66.4106 11.85C67.1773 10.55 68.2606 9.51667 69.6606 8.75C71.0606 7.98333 72.7106 7.6 74.6106 7.6C76.8439 7.6 78.8606 8.18333 80.6606 9.35C82.4939 10.5167 83.9273 12.1833 84.9606 14.35C86.0273 16.5167 86.5606 19.05 86.5606 21.95C86.5606 24.85 86.0273 27.4 84.9606 29.6C83.9273 31.7667 82.4939 33.4333 80.6606 34.6C78.8606 35.7667 76.8439 36.35 74.6106 36.35C72.7106 36.35 71.0606 35.9667 69.6606 35.2C68.2939 34.4333 67.2106 33.4 66.4106 32.1V49.4H56.6106V7.95H66.4106V11.85ZM76.6106 21.95C76.6106 20.1167 76.1106 18.7 75.1106 17.7C74.1439 16.6667 72.9439 16.15 71.5106 16.15C70.0773 16.15 68.8606 16.6667 67.8606 17.7C66.8939 18.7333 66.4106 20.15 66.4106 21.95C66.4106 23.7833 66.8939 25.2167 67.8606 26.25C68.8606 27.2833 70.0773 27.8 71.5106 27.8C72.9439 27.8 74.1439 27.2833 75.1106 26.25C76.1106 25.1833 76.6106 23.75 76.6106 21.95Z" fill="url(#paint2_linear)"/>
<path d="M88.995 21.95C88.995 19.05 89.5116 16.5167 90.545 14.35C91.6116 12.1833 93.045 10.5167 94.845 9.35C96.6783 8.18333 98.7116 7.6 100.945 7.6C102.878 7.6 104.545 7.98333 105.945 8.75C107.345 9.51667 108.428 10.55 109.195 11.85V7.95H118.995V36H109.195V32.1C108.428 33.4 107.328 34.4333 105.895 35.2C104.495 35.9667 102.845 36.35 100.945 36.35C98.7116 36.35 96.6783 35.7667 94.845 34.6C93.045 33.4333 91.6116 31.7667 90.545 29.6C89.5116 27.4 88.995 24.85 88.995 21.95ZM109.195 21.95C109.195 20.15 108.695 18.7333 107.695 17.7C106.728 16.6667 105.528 16.15 104.095 16.15C102.628 16.15 101.412 16.6667 100.445 17.7C99.4783 18.7 98.995 20.1167 98.995 21.95C98.995 23.75 99.4783 25.1833 100.445 26.25C101.412 27.2833 102.628 27.8 104.095 27.8C105.528 27.8 106.728 27.2833 107.695 26.25C108.695 25.2167 109.195 23.7833 109.195 21.95Z" fill="url(#paint3_linear)"/>
<path d="M133.879 27.85H145.829V36H123.079V28.25L134.229 16.1H123.179V7.95H145.429V15.7L133.879 27.85Z" fill="url(#paint4_linear)"/>
<path d="M178.621 7.95V36H168.771V32C167.938 33.2667 166.788 34.3 165.321 35.1C163.854 35.8667 162.171 36.25 160.271 36.25C157.004 36.25 154.421 35.1833 152.521 33.05C150.654 30.8833 149.721 27.95 149.721 24.25V7.95H159.471V23C159.471 24.6 159.888 25.8667 160.721 26.8C161.588 27.7 162.721 28.15 164.121 28.15C165.554 28.15 166.688 27.7 167.521 26.8C168.354 25.8667 168.771 24.6 168.771 23V7.95H178.621Z" fill="url(#paint5_linear)"/>
<path d="M220.848 7.7C224.382 7.7 227.148 8.76667 229.148 10.9C231.182 13.0333 232.198 15.95 232.198 19.65V36H222.398V20.95C222.398 19.45 221.982 18.2833 221.148 17.45C220.315 16.6167 219.182 16.2 217.748 16.2C216.315 16.2 215.182 16.6167 214.348 17.45C213.515 18.2833 213.098 19.45 213.098 20.95V36H203.298V20.95C203.298 19.45 202.882 18.2833 202.048 17.45C201.248 16.6167 200.132 16.2 198.698 16.2C197.232 16.2 196.082 16.6167 195.248 17.45C194.415 18.2833 193.998 19.45 193.998 20.95V36H184.198V7.95H193.998V11.65C194.865 10.45 195.982 9.5 197.348 8.8C198.748 8.06667 200.348 7.7 202.148 7.7C204.215 7.7 206.048 8.15 207.648 9.05C209.282 9.95 210.565 11.2167 211.498 12.85C212.498 11.3167 213.815 10.0833 215.448 9.15C217.082 8.18333 218.882 7.7 220.848 7.7Z" fill="url(#paint6_linear)"/>
<defs>
<linearGradient id="paint0_linear" x1="-590.386" y1="-242.251" x2="486.811" y2="407.568" gradientUnits="userSpaceOnUse">
<stop stop-color="#9B51E0"/>
<stop offset="1" stop-color="#2F80ED"/>
</linearGradient>
<linearGradient id="paint1_linear" x1="-590.386" y1="-242.251" x2="486.811" y2="407.568" gradientUnits="userSpaceOnUse">
<stop stop-color="#9B51E0"/>
<stop offset="1" stop-color="#2F80ED"/>
</linearGradient>
<linearGradient id="paint2_linear" x1="-590.386" y1="-242.251" x2="486.811" y2="407.568" gradientUnits="userSpaceOnUse">
<stop stop-color="#9B51E0"/>
<stop offset="1" stop-color="#2F80ED"/>
</linearGradient>
<linearGradient id="paint3_linear" x1="-590.386" y1="-242.251" x2="486.811" y2="407.568" gradientUnits="userSpaceOnUse">
<stop stop-color="#9B51E0"/>
<stop offset="1" stop-color="#2F80ED"/>
</linearGradient>
<linearGradient id="paint4_linear" x1="-590.386" y1="-242.251" x2="486.811" y2="407.568" gradientUnits="userSpaceOnUse">
<stop stop-color="#9B51E0"/>
<stop offset="1" stop-color="#2F80ED"/>
</linearGradient>
<linearGradient id="paint5_linear" x1="-590.386" y1="-242.251" x2="486.811" y2="407.568" gradientUnits="userSpaceOnUse">
<stop stop-color="#9B51E0"/>
<stop offset="1" stop-color="#2F80ED"/>
</linearGradient>
<linearGradient id="paint6_linear" x1="-590.386" y1="-242.251" x2="486.811" y2="407.568" gradientUnits="userSpaceOnUse">
<stop stop-color="#9B51E0"/>
<stop offset="1" stop-color="#2F80ED"/>
</linearGradient>
</defs>
</svg>

<svg width="233" height="50" fill="none" xmlns="http://www.w3.org/2000/svg"><path d="M10.6 8.6v5.75h11.25v7.45H10.6v6.35h12.75V36H.8V.75h22.55V8.6H10.6z" fill="url(#paint0_linear)"/><path d="M40.143 36.35c-2.534 0-4.8-.417-6.8-1.25-1.967-.867-3.534-2.033-4.7-3.5a9.312 9.312 0 01-1.9-5.05h9.5c.133.9.55 1.6 1.25 2.1s1.566.75 2.6.75c.8 0 1.433-.167 1.9-.5.466-.333.7-.767.7-1.3 0-.7-.384-1.217-1.15-1.55-.767-.333-2.034-.7-3.8-1.1-2-.4-3.667-.85-5-1.35-1.334-.5-2.5-1.317-3.5-2.45-.967-1.133-1.45-2.667-1.45-4.6 0-1.667.45-3.167 1.35-4.5.9-1.367 2.216-2.45 3.95-3.25 1.766-.8 3.883-1.2 6.35-1.2 3.666 0 6.55.9 8.65 2.7 2.1 1.8 3.316 4.167 3.65 7.1h-8.85c-.167-.9-.567-1.583-1.2-2.05-.6-.5-1.417-.75-2.45-.75-.8 0-1.417.15-1.85.45-.4.3-.6.717-.6 1.25 0 .667.383 1.183 1.15 1.55.766.333 2 .683 3.7 1.05 2.033.433 3.716.917 5.05 1.45 1.366.533 2.55 1.4 3.55 2.6 1.033 1.167 1.55 2.767 1.55 4.8 0 1.633-.484 3.1-1.45 4.4-.934 1.3-2.284 2.333-4.05 3.1-1.734.733-3.784 1.1-6.15 1.1z" fill="url(#paint1_linear)"/><path d="M66.41 11.85c.767-1.3 1.85-2.333 3.25-3.1 1.4-.767 3.05-1.15 4.95-1.15 2.234 0 4.25.583 6.05 1.75 1.834 1.167 3.267 2.833 4.3 5 1.067 2.167 1.6 4.7 1.6 7.6 0 2.9-.533 5.45-1.6 7.65-1.033 2.167-2.466 3.833-4.3 5-1.8 1.167-3.816 1.75-6.05 1.75-1.9 0-3.55-.383-4.95-1.15a8.799 8.799 0 01-3.25-3.1v17.3h-9.8V7.95h9.8v3.9zm10.2 10.1c0-1.833-.5-3.25-1.5-4.25-.966-1.033-2.166-1.55-3.6-1.55-1.433 0-2.65.517-3.65 1.55-.966 1.033-1.45 2.45-1.45 4.25 0 1.833.484 3.267 1.45 4.3 1 1.033 2.217 1.55 3.65 1.55 1.434 0 2.634-.517 3.6-1.55 1-1.067 1.5-2.5 1.5-4.3z" fill="url(#paint2_linear)"/><path d="M88.995 21.95c0-2.9.517-5.433 1.55-7.6 1.067-2.167 2.5-3.833 4.3-5 1.833-1.167 3.867-1.75 6.1-1.75 1.933 0 3.6.383 5 1.15 1.4.767 2.483 1.8 3.25 3.1v-3.9h9.8V36h-9.8v-3.9c-.767 1.3-1.867 2.333-3.3 3.1-1.4.767-3.05 1.15-4.95 1.15-2.233 0-4.267-.583-6.1-1.75-1.8-1.167-3.233-2.833-4.3-5-1.033-2.2-1.55-4.75-1.55-7.65zm20.2 0c0-1.8-.5-3.217-1.5-4.25-.967-1.033-2.167-1.55-3.6-1.55-1.467 0-2.683.517-3.65 1.55-.967 1-1.45 2.417-1.45 4.25 0 1.8.483 3.233 1.45 4.3.967 1.033 2.183 1.55 3.65 1.55 1.433 0 2.633-.517 3.6-1.55 1-1.033 1.5-2.467 1.5-4.3z" fill="url(#paint3_linear)"/><path d="M133.879 27.85h11.95V36h-22.75v-7.75l11.15-12.15h-11.05V7.95h22.25v7.75l-11.55 12.15z" fill="url(#paint4_linear)"/><path d="M178.621 7.95V36h-9.85v-4c-.833 1.267-1.983 2.3-3.45 3.1-1.467.767-3.15 1.15-5.05 1.15-3.267 0-5.85-1.067-7.75-3.2-1.867-2.167-2.8-5.1-2.8-8.8V7.95h9.75V23c0 1.6.417 2.867 1.25 3.8.867.9 2 1.35 3.4 1.35 1.433 0 2.567-.45 3.4-1.35.833-.933 1.25-2.2 1.25-3.8V7.95h9.85z" fill="url(#paint5_linear)"/><path d="M220.848 7.7c3.534 0 6.3 1.067 8.3 3.2 2.034 2.133 3.05 5.05 3.05 8.75V36h-9.8V20.95c0-1.5-.416-2.667-1.25-3.5-.833-.833-1.966-1.25-3.4-1.25-1.433 0-2.566.417-3.4 1.25-.833.833-1.25 2-1.25 3.5V36h-9.8V20.95c0-1.5-.416-2.667-1.25-3.5-.8-.833-1.916-1.25-3.35-1.25-1.466 0-2.616.417-3.45 1.25-.833.833-1.25 2-1.25 3.5V36h-9.8V7.95h9.8v3.7c.867-1.2 1.984-2.15 3.35-2.85 1.4-.733 3-1.1 4.8-1.1 2.067 0 3.9.45 5.5 1.35a9.806 9.806 0 013.85 3.8c1-1.533 2.317-2.767 3.95-3.7 1.634-.967 3.434-1.45 5.4-1.45z" fill="url(#paint6_linear)"/><defs><linearGradient id="paint0_linear" x1="-590.386" y1="-242.251" x2="486.811" y2="407.568" gradientUnits="userSpaceOnUse"><stop stop-color="#9B51E0"/><stop offset="1" stop-color="#2F80ED"/></linearGradient><linearGradient id="paint1_linear" x1="-590.386" y1="-242.251" x2="486.811" y2="407.568" gradientUnits="userSpaceOnUse"><stop stop-color="#9B51E0"/><stop offset="1" stop-color="#2F80ED"/></linearGradient><linearGradient id="paint2_linear" x1="-590.386" y1="-242.251" x2="486.811" y2="407.568" gradientUnits="userSpaceOnUse"><stop stop-color="#9B51E0"/><stop offset="1" stop-color="#2F80ED"/></linearGradient><linearGradient id="paint3_linear" x1="-590.386" y1="-242.251" x2="486.811" y2="407.568" gradientUnits="userSpaceOnUse"><stop stop-color="#9B51E0"/><stop offset="1" stop-color="#2F80ED"/></linearGradient><linearGradient id="paint4_linear" x1="-590.386" y1="-242.251" x2="486.811" y2="407.568" gradientUnits="userSpaceOnUse"><stop stop-color="#9B51E0"/><stop offset="1" stop-color="#2F80ED"/></linearGradient><linearGradient id="paint5_linear" x1="-590.386" y1="-242.251" x2="486.811" y2="407.568" gradientUnits="userSpaceOnUse"><stop stop-color="#9B51E0"/><stop offset="1" stop-color="#2F80ED"/></linearGradient><linearGradient id="paint6_linear" x1="-590.386" y1="-242.251" x2="486.811" y2="407.568" gradientUnits="userSpaceOnUse"><stop stop-color="#9B51E0"/><stop offset="1" stop-color="#2F80ED"/></linearGradient></defs></svg>
